X:1
T:Milano, 87.87.87
T:Milano, 87.87.87
T:Ferdinando Bonaggi
T:Public Domain Courtesy of the Cyber Hymnal™
C:Ferdinando Bonaggi
Z:Public Domain
Z:Courtesy of the Cyber Hymnal™
%%score ( 1 2 ) ( 3 4 )
L:1/8
Q:1/4=115
M:none
K:Eb
V:1 treble 
V:2 treble 
V:3 bass 
V:4 bass 
V:1
 [EG]3 [EG] [EG]2 [EG]2 | [FA]2 [DG]2 G2 F2 | [DG]4 [Gc]3 [Gc] | [FA]2 [Gc]2 c2 z x3 | %4
 [Gc]4 !breath![GB]3 [GB] | [F=A]2 [FB]2 [EB]2 [FA]2 | [FB]2 [FB]2 [DG]2 [DG]2 | %7
 [EG]2 [GB]2 =A2 z A x | G4 !breath![Gc]2 [Gc]2 | [FA]2 [FA]2 [FB]2 [FB]2 | G2 G2 [DG]3 [DG] | %11
 [Ec]2 [Fc]2 [D=B]2 [Ec-]2 | [Dc]6 [D=B]2 | [Cc]8 |] %14
V:2
 x8 | x4 C4 | x8 | x4 G3 (=B2 G) | x8 | x8 | x8 | x4 G3 ^F2 | G4 x4 | x8 | G2 G2 x4 | x8 | x8 | %13
 x8 |] %14
V:3
 [C,C]3 [C,C] [C,C]2 [C,C]2 | [F,C]2 [G,=B,]2 [A,C]4 | [G,=B,]4 [E,C]3 [E,C] | %3
 [F,C]2 [C,E]2 [G,D]3 [G,D] x2 | [C,E]4 !breath![E,B,]3 [E,B,] | [E,C]2 [D,D]2 [C,E]2 [F,C]2 | %6
 [B,,D]2 [B,,D]2 [=B,,D]2 [B,,D]2 | [C,C]2 [G,D]2 [D,D]3 [D,D] x | [G,D]4 !breath![=E,C]2 [E,C]2 | %9
 [F,C]2 [F,C]2 [D,D]2 [D,D]2 | [E,B,]2 [E,B,]2 [=B,,D]3 [B,,D] | [C,C]2 [A,C]2 G,2- [C,G,-]2 | %12
 [G,,G,]6 [G,,G,]2 | [C,G,]8 |] %14
V:4
 x8 | x8 | x8 | x10 | x8 | x8 | x8 | x9 | x8 | x8 | x8 | x4 G,2 x2 | x8 | x8 |] %14

